X:8163
T:Wooden Shoe Clog
O:england
M:C
L:1/8
S:Devil's Box Vol 12 #2  6/78
N:As played by Ken Smelser
K:D
F>E|:"D"D>FA>F "Em"E>GB>G|"D"F>Ad>e f>dA>F|
"G"G2e>d "Em"c>Bc>d|"A7"(3efe (3dcB (3ABA (3GFE|
"D"D>FA>F "Em"E>GB>G|"D"F>Ad>e f>dA>F|
"G"G2e>d "Em"c>Bc>d|1"D"d2 (3dec d2F>E:|2"D"d2 (3dec d2 c>d||"A7"e>AA>A
"D"f>AA>A|"A7"g>Af>A e>AA>A|
e>Af>A g>Af>a|(3efe (3dcB (3ABA (3GFE|
"D"D>FA>F "Em"E>GB>G|"D"F>Ad>e f>dA>F|"G"G2e>d "Em"c>Bc>d|1"D"d2 (3dec d
2
c>d|2d2 (3dec d2


